svgs/sharp-solid/bore-hole.svg

<svg xmlns="http://www.w3.org/2000/svg" viewBox="0 0 512 512"><!--! Font Awesome Pro 6.6.0 by @fontawesome - https://fontawesome.com License - https://fontawesome.com/license (Commercial License) Copyright 2024 Fonticons, Inc. --><path d="M288 0L224 0l0 32 0 264.6c-19.1 11.1-32 31.7-32 55.4c0 35.3 28.7 64 64 64s64-28.7 64-64c0-23.7-12.9-44.4-32-55.4L288 32l0-32zM160 128L0 128 0 512l512 0 0-384-160 0 0 224c0 53-43 96-96 96s-96-43-96-96l0-224z"/></svg>

<svg xmlns="http://www.w3.org/2000/svg" viewBox="0 0 512 512"><!--! Font Awesome Pro 6.4.0 by @fontawesome - https://fontawesome.com License - https://fontawesome.com/license (Commercial License) Copyright 2023 Fonticons, Inc. --><path d="M288 0H224V32 296.6c-19.1 11.1-32 31.7-32 55.4c0 35.3 28.7 64 64 64s64-28.7 64-64c0-23.7-12.9-44.4-32-55.4V32 0zM160 128H0V512H512V128H352V352c0 53-43 96-96 96s-96-43-96-96V128z"/></svg>
